svg/icon/storj.svg

<svg height="32" viewBox="0 0 32 32" width="32" xmlns="http://www.w3.org/2000/svg" xmlns:xlink="http://www.w3.org/1999/xlink"><defs><linearGradient id="a" x1="50%" x2="50%" y1="0%" y2="100%"><stop offset="0" stop-color="#fff" stop-opacity=".5"/><stop offset="1" stop-opacity=".5"/></linearGradient><circle id="b" cx="16" cy="15" r="15"/><filter id="c" height="111.7%" width="111.7%" x="-5.8%" y="-4.2%"><feOffset dy=".5" in="SourceAlpha" result="shadowOffsetOuter1"/><feGaussianBlur in="shadowOffsetOuter1" result="shadowBlurOuter1" stdDeviation=".5"/><feComposite in="shadowBlurOuter1" in2="SourceAlpha" operator="out" result="shadowBlurOuter1"/><feColorMatrix in="shadowBlurOuter1" values="0 0 0 0 0   0 0 0 0 0   0 0 0 0 0  0 0 0 0.199473505 0"/></filter><path id="d" d="m24.9774944 17.9713284c.8704696.5239262 1.1672053 1.6299682.6729822 2.5324016-.5146335.9023235-1.6821751 1.2225311-2.6017642.7179648-.0890432-.0486197-.1681054-.1068092-.2472798-.1649988l-4.9260817 2.7845197c.0118505.0901233.0184404.1808372.0197376.2716981 0 .1068092 0 .2038285-.0197376.3105277-.1681053 1.0188126-1.1473556 1.7174175-2.1860426 1.5524187-1.0386871-.1649988-1.7509201-1.1255118-1.5827026-2.1442144l-4.95568795-2.8039896c-.07917438.0581896-.15823661.1066992-.23741099.1552089-.07906223.0387197-.1582366.0872293-.24727974.1163791-.97936237.3880772-2.08724292-.0779894-2.48289052-1.0381724-.39564759-.960183.07928652-2.0471951 1.05864889-2.4352723v-5.6079792c-.09005198-.0288189-.17635537-.0678777-.2571485-.1163792-.07906224-.0485096-.14836785-.0970193-.21756132-.1455289-.55128472-.4042459-.83853261-1.0679163-.75211099-1.737711.08642162-.66979463.53317587-1.24234849 1.16975195-1.49913737.63657608-.25678887 1.36473535-.1581842 1.90656436.25817998l5.00514391-2.84281933c-.0098687-.08722936-.0197375-.1648888-.0197375-.25222816 0-1.02838253.8803383-1.88219632 1.9288942-1.88219632 1.0485558 0 1.908708.83434393 1.9088202 1.87240639 0 .08722936-.0098688.1648888-.0197375.25222816l5.0447311 2.86217919c.0691934-.04850964.1383869-.09701929.2175613-.13584901.9201498-.50434633 2.0875794-.17489873 2.6017642.72764471.5141849.90254346.1777499 2.04741516-.7418392 2.55198146-.0890432.0387197-.1780863.0872294-.2671294.1163791v5.6176592c.0785763.029673.1546573.0653489.2275422.1066992zm.3461916 2.347933h.0002243c.4149366-.688815.177862-1.5620987-.5046525-1.9598558-.5520082-.3192119-1.2523355-.2441947-1.7210895.1843587l-2.2653292-1.2904007c.5638651-1.1351917.1879551-2.4934618-.8704695-3.2017467-.0593248-.2139484-.1483679-.4172269-.2472798-.6209455l3.4224414-1.9014461c.3565245.3301415.8571061.4647263 1.3354228.3590373.7914073-.1745687 1.2759859-.950723 1.0980118-1.7269874-.1779741-.77626435-.9692693-1.2515709-1.7606767-1.07700216-.7914073.17456873-1.276098.95083306-1.0980118 1.72698746l-3.4620286 1.9307059c-.6726457-.7858342-2.8092324-1.3097604-2.8092324-1.3097604v-4.27896893c.4373032-.12815343.7794033-.46370776.9100567-.89264351.2175613-.70828485-.187955-1.45539941-.9100567-1.66879786-.7221018-.21339845-1.4843514.17467873-1.7019127.88296358s.187955 1.45539942.9100567 1.66879786v4.36597826s-1.1663081.3783973-1.6215047.7468946c-.4840084.0110526-.9585135.1340706-1.3848787.3590374l-3.25433602-1.8336867c.1088928-.4657366-.01962538-.95083309-.35606041-1.30008055-.5538842-.58211577-1.46394095-.61115556-2.05741234-.06786951-.28448977.2592521-.45177727.61911726-.46476672.99979576-.01298946.3806785.12939265.7507097.39557324 1.0280395.55388421.5821158 1.4742583.6111556 2.05741235.0678695l2.9381993 1.649438c-1.0684055 1.0478524-1.2069046 2.6972904-.3364351 3.9003517l-2.58169024 1.4650793c-.36648989-.3298876-.87091815-.4656266-1.34574012-.3492475-.78902353.1850749-1.27574459.9624423-1.0871839 1.7363977.18856069.7739553.98101572 1.251486 1.77009878 1.0666555.78908306-.1848306 1.27605428-.9620472 1.08774268-1.7360609l2.7597765-1.5619887c.7095721.5626476 1.6374896.7866411 2.5322344.6112656.2760091.1251574.5602164.2321303.850732.3202077v4.0750303c-.3953111.1261691-.731634.3977571-.9195891.7664745-.37591.7373246-.0791743 1.649328.6825146 2.0180453.0593247.0291498.1187615.0582996.187955.0776594.0099809 0 .0198497.00968.0297184.00968.8111449.2419982 1.6723064-.1944786 1.9190254-.9899928.2467191-.7955143-.1981602-1.6396481-1.0093051-1.8821964v-3.9973709s.741615-.0679795 1.0878066-.1746787c.965385.3799928 2.0689744.1544956 2.7993638-.5719959l2.314673 1.3292304c-.1483679.6111555.1286303 1.2417809.6825145 1.5619886.6923833.3977571 1.5925713.1648888 1.9980876-.5142462zm-17.33997351-1.3582702v.00011c.21965097.0008696.42260203.115136.53414668.3007378.04945595.0970193.07917438.1940386.07917438.3007379 0 .3322465-.27459319.6015856-.61332106.6015856s-.61332106-.2693391-.61332106-.6015856c0-.3322466.27459319-.6015857.61332106-.6015857zm8.66499631-13.08847481c-.0018994.33147178-.2753831.59972253-.613321.60158562-.3387279 0-.6133211-.26933906-.6133211-.60158562 0-.33224657.2745932-.60158563.6133211-.60158563.3387278 0 .613321.26933906.613321.60158563zm7.4786143 5.21990201c-.2223524-.0006015-.4268637-.1194947-.5341467-.3105277-.0515076-.0887116-.07878-.1889693-.0791744-.2910579 0-.3322466.2745932-.60158562.6133211-.60158562.3387278 0 .613321.26933902.613321.60158562s-.2745932.6015856-.613321.6015856zm-15.8573044-1.15466157c.29673569.16488877.39575974.53360617.22754222.81498407-.16810537.2910579-.53414668.3880772-.83088237.2231884-.2967357-.1648888-.3956476-.5239262-.22754223-.8149841.16810537-.29105788.53414668-.38818717.83088238-.22318837zm16.1040234 9.13961357c.2967357.1648888.3957597.5336061.2275422.8149841-.1192101.1843586-.3165853.3007378-.5341467.3007378-.2210748.0029324-.4266477-.111073-.5380572-.2983926-.1114094-.1873195-.1114094-.4189566 0-.6062761.1114095-.1873196.3169824-.301325.5380572-.2983926.1087807.0096799.2175614.0291498.3066045.0873394zm-8.9519754 5.0159635v-.00011c.0010429-.0073381.0045095-.0141386.0098688-.0193598.051904-.3243044.3605294-.5470149.6916237-.4990902.3310943.0479246.5609796.3485826.5151687.6737689-.058146.2980522-.3236793.5137503-.6330586.5142462-.0593247 0-.1286303-.0194698-.187955-.0388297-.2571485-.0970193-.425366-.3589274-.3956476-.6306254zm3.5215776-9.2849225-.0003364.00033c.6037887.1843587 1.009305.7374347 1.009305 1.37774 0 .0485096-.0098687.0970193-.0098687.1455289-.0098688.0387198-.0098688.0775495-.0197375.1163792v.0291498c-.0198497.0872293-.0395872.1745687-.0791744.2619081-.1087807.2620181-.2967357.4948864-.5440155.6500953-.0594368.0291497-.1088928.0581895-.1682175.0873393l-.0297184.0096799c-.0576141.0268098-.1171319.0494923-.1780863.0678696-.0618064.0166069-.1245702.0295733-.187955.0388297l-.049456.0096799c-.0691934 0-.1286303.0096799-.1978238.0096799-.3225893-.0002719-.635865-.1061056-.890207-.3007378l-.2671295.1163792c-.0818157.0391687-.1681579.0684944-.2571485.0873393h-.0098687c-.6121355.1639864-1.2646112.0982538-1.8299823-.1843586h-.0096445c-.0594368-.0291498-.1187615-.0581896-.1682175-.0873394l-.0197375-.0096799c-.0594369-.0387197-.1088928-.0775495-.1682175-.1163792-.237411.1066993-.4945595.1552089-.7616889.1552089-.0790623 0-.1483679 0-.2175613-.0096799l-.0395872-.00968-.1780863-.0291497-.0197375-.00968c-.0637836-.0116101-.1266061-.027824-.1879551-.0485096-.1582366-.0483997-.3066044-.1260591-.4549723-.2133985-.2992257-.1859366-.5338599-.4565867-.67287-.7761543 0-.0193599-.0098688-.0291498-.0197375-.0485097-.0114743-.0329902-.0246878-.0653736-.0395872-.0970193-.0116947-.0218287-.0216311-.0445211-.0297185-.0678695-.0099809-.0291498-.0297184-.0581896-.0297184-.0873393-.0018209-.0299549-.0084831-.0594356-.0197375-.0873394-.0098688-.0291498-.0098688-.0389397-.0197375-.0776594-.0098688-.0387198-.0098688-.0775495-.0197376-.1163792 0-.0290398-.0098687-.0485096-.0098687-.0678695-.0082171-.0611036-.0115169-.122747-.0098688-.1843587-.0016518-.0745273.0016447-.1490811.0098688-.2231883 0-.0290398.0098687-.0485097.0098687-.0678695.0099809-.0581896.0198497-.1066993.0297185-.1552089.0098687-.0193599.0098687-.0485097.0197375-.0678695.0119503-.053023.0284957-.104948.0494559-.1552089.0098688-.0193599.0098688-.0291498.0197376-.0485096.0222279-.0599574.0486833-.1183247.0791743-.1746788l.0105417-.0197998c.108332-.1939286.246719-.3783973.4149365-.5239262.3363229-.3008478.7715577-.4852065 1.22653-.5045664.0297184-.0096799.0593247-.0096799.0989119-.0096799.1193033.0000666.2383965.0098165.3560604.0291498.0494559-.0582996.0989119-.1068092.1582366-.1649988l.0494559-.0485096c.0594369-.0485097.1088928-.0970193.1682176-.1358491l.0297184-.0193598c.0395872-.0291498.1088928-.0776595.1384991-.0970193.0296063-.0193599.0790622-.0581896.1087806-.0678695.0348317-.0122274.0680402-.0285139.0989119-.0485097.0593247-.0291498.1582366-.0776594.2175613-.0970193l.049456-.0388297c.3954679-.1540768.8250875-.2042398 1.2463796-.1455289h.0098688c.0798663.0082107.1591496.0211778.237411.0388297h.0098687c.0791744.0096799.1483679.0388297.2275423.0581896l.0098687.0096799c.0790623.0291498.1483679.0581896.2175613.0873394l.0197376.0096799c.0678605.0284292.1339205.0608272.1978238.0970193l.0098687.0096799c.0593247.0290398.1286304.0775495.1879551.1163792l.0098687.0096799c.0693056.0388297.1286303.0873394.1879551.135849l.0098687.00968c.0693056.0582995.1187616.1068092.1780863.1649988.2462593.250632.4380875.5476877.5638651.8731736v.0096799c.0197375.0581896.0395872.1261691.0593247.1843587 0 .0193599.0098688.0388297.0098688.0581896.0166814.0508204.0299062.1026706.0395872.1552088.0099809.0776595.0198496.145529.0297184.2231884z"/><filter id="e" height="115.9%" width="117.5%" x="-8.8%" y="-5.7%"><feOffset dy=".5" in="SourceAlpha" result="shadowOffsetOuter1"/><feGaussianBlur in="shadowOffsetOuter1" result="shadowBlurOuter1" stdDeviation=".5"/><feColorMatrix in="shadowBlurOuter1" values="0 0 0 0 0   0 0 0 0 0   0 0 0 0 0  0 0 0 0.204257246 0"/></filter></defs><g fill="none" fill-rule="evenodd"><use fill="#000" filter="url(#c)" xlink:href="#b"/><use fill="#2683ff" xlink:href="#b"/><use fill="url(#a)" xlink:href="#b"/><circle cx="16" cy="15" r="14.5" stroke="#000" stroke-opacity=".097"/><g fill-rule="nonzero"><use fill="#000" filter="url(#e)" xlink:href="#d"/><use fill="#fff" fill-rule="evenodd" xlink:href="#d"/></g></g></svg>

<svg xmlns="http://www.w3.org/2000/svg" xmlns:xlink="http://www.w3.org/1999/xlink" width="32" height="32" viewBox="0 0 32 32">
  <defs>
    <linearGradient id="storj-c" x1="50%" x2="50%" y1="0%" y2="100%">
      <stop offset="0%" stop-color="#FFF" stop-opacity=".5"/>
      <stop offset="100%" stop-opacity=".5"/>
    </linearGradient>
    <circle id="storj-b" cx="16" cy="15" r="15"/>
    <filter id="storj-a" width="111.7%" height="111.7%" x="-5.8%" y="-4.2%" filterUnits="objectBoundingBox">
      <feOffset dy=".5" in="SourceAlpha" result="shadowOffsetOuter1"/>
      <feGaussianBlur in="shadowOffsetOuter1" result="shadowBlurOuter1" stdDeviation=".5"/>
      <feComposite in="shadowBlurOuter1" in2="SourceAlpha" operator="out" result="shadowBlurOuter1"/>
      <feColorMatrix in="shadowBlurOuter1" values="0 0 0 0 0   0 0 0 0 0   0 0 0 0 0  0 0 0 0.199473505 0"/>
    </filter>
    <path id="storj-e" d="M24.9774944,17.9713284 C25.847964,18.4952546 26.1446997,19.6012966 25.6504766,20.50373 C25.1358431,21.4060535 23.9683015,21.7262611 23.0487124,21.2216948 C22.9596692,21.1730751 22.880607,21.1148856 22.8014326,21.056696 L17.8753509,23.8412157 C17.8872014,23.931339 17.8937913,24.0220529 17.8950885,24.1129138 C17.8950885,24.219723 17.8950885,24.3167423 17.8753509,24.4234415 C17.7072456,25.4422541 16.7279953,26.140859 15.6893083,25.9758602 C14.6506212,25.8108614 13.9383882,24.8503484 14.1066057,23.8316458 L9.15091775,21.0276562 C9.07174337,21.0858458 8.99268114,21.1343554 8.91350676,21.1828651 C8.83444453,21.2215848 8.75527016,21.2700944 8.66622702,21.2992442 C7.68686465,21.6873214 6.5789841,21.2212548 6.1833365,20.2610718 C5.78768891,19.3008888 6.26262302,18.2138767 7.24198539,17.8257995 L7.24198539,12.2178203 C7.15193341,12.1890014 7.06563002,12.1499426 6.98483689,12.1014411 C6.90577465,12.0529315 6.83646904,12.0044218 6.76727557,11.9559122 C6.21599085,11.5516663 5.92874296,10.8879959 6.01516458,10.2182012 C6.1015862,9.54840657 6.54834045,8.97585271 7.18491653,8.71906383 C7.82149261,8.46227496 8.54965188,8.56087963 9.09148089,8.97724381 L14.0966248,6.13442448 C14.0867561,6.04719512 14.0768873,5.96953568 14.0768873,5.88219632 C14.0768873,4.85381379 14.9572256,4 16.0057815,4 C17.0543373,4 17.9144895,4.83434393 17.9146017,5.87240639 C17.9146017,5.95963575 17.9047329,6.03729519 17.8948642,6.12463455 L22.9395953,8.98681374 C23.0087887,8.9383041 23.0779822,8.88979445 23.1571566,8.85096473 C24.0773064,8.3466184 25.244736,8.676066 25.7589208,9.57860944 C26.2731057,10.4811529 25.9366707,11.6260246 25.0170816,12.1305909 C24.9280384,12.1693106 24.8389953,12.2178203 24.7499522,12.24697 L24.7499522,17.8646292 C24.8285285,17.8943022 24.9046095,17.9299781 24.9774944,17.9713284 Z M25.323686,20.3192614 L25.3239103,20.3192614 C25.7388469,19.6304464 25.5017723,18.7571627 24.8192578,18.3594056 C24.2672496,18.0401937 23.5669223,18.1152109 23.0981683,18.5437643 L20.8328391,17.2533636 C21.3967042,16.1181719 21.0207942,14.7599018 19.9623696,14.0516169 C19.9030448,13.8376685 19.8140017,13.63439 19.7150898,13.4306714 L23.1375312,11.5292253 C23.4940557,11.8593668 23.9946373,11.9939516 24.472954,11.8882626 C25.2643613,11.7136939 25.7489399,10.9375396 25.5709658,10.1612752 C25.3929917,9.38501085 24.6016965,8.9097043 23.8102891,9.08427304 C23.0188818,9.25884177 22.5341911,10.0351061 22.7122773,10.8112605 L19.2502487,12.7419664 C18.577603,11.9561322 16.4410163,11.432206 16.4410163,11.432206 L16.4410163,7.15323707 C16.8783195,7.02508364 17.2204196,6.68952931 17.351073,6.26059356 C17.5686343,5.55230871 17.163118,4.80519415 16.4410163,4.5917957 C15.7189145,4.37839725 14.9566649,4.76647443 14.7391036,5.47475928 C14.5215423,6.18304413 14.9270586,6.9301587 15.6491603,7.14355714 L15.6491603,11.5095354 C15.6491603,11.5095354 14.4828522,11.8879327 14.0276556,12.25643 C13.5436472,12.2674826 13.0691421,12.3905006 12.6427769,12.6154674 L9.38844088,10.7817807 C9.49733368,10.3160441 9.3688155,9.83094761 9.03238047,9.48170015 C8.47849627,8.89958438 7.56843952,8.87054459 6.97496813,9.41383064 C6.69047836,9.67308274 6.52319086,10.0329479 6.51020141,10.4136264 C6.49721195,10.7943049 6.63959406,11.1643361 6.90577465,11.4416659 C7.45965886,12.0237817 8.38003295,12.0528215 8.963187,11.5095354 L11.9013863,13.1589734 C10.8329808,14.2068258 10.6944817,15.8562638 11.5649512,17.0593251 L8.98326096,18.5244044 C8.61677107,18.1945168 8.11234281,18.0587778 7.63752084,18.1751569 C6.84849731,18.3602318 6.36177625,19.1375992 6.55033694,19.9115546 C6.73889763,20.6855099 7.53135266,21.1630406 8.32043572,20.9782101 C9.10951878,20.7933795 9.59649,20.0161629 9.4081784,19.2421492 L12.1679549,17.6801605 C12.877527,18.2428081 13.8054445,18.4668016 14.7001893,18.2914261 C14.9761984,18.4165835 15.2604057,18.5235564 15.5509213,18.6116338 L15.5509213,22.6866641 C15.1556102,22.8128332 14.8192873,23.0844212 14.6313322,23.4531386 C14.2554222,24.1904632 14.5521579,25.1024666 15.3138468,25.4711839 C15.3731715,25.5003337 15.4326083,25.5294835 15.5018018,25.5488433 C15.5117827,25.5488433 15.5216515,25.5585233 15.5315202,25.5585233 C16.3426651,25.8005215 17.2038266,25.3640447 17.4505456,24.5685305 C17.6972647,23.7730162 17.2523854,22.9288824 16.4412405,22.6863341 L16.4412405,18.6889632 C16.4412405,18.6889632 17.1828555,18.6209837 17.5290471,18.5142845 C18.4944321,18.8942773 19.5980215,18.6687801 20.3284109,17.9422886 L22.6430839,19.271519 C22.494716,19.8826745 22.7717142,20.5132999 23.3255984,20.8335076 C24.0179817,21.2312647 24.9181697,20.9983964 25.323686,20.3192614 Z M7.98371249,18.9609912 L7.98371249,18.9611012 C8.20336346,18.9619708 8.40631452,19.0762372 8.51785917,19.261839 C8.56731512,19.3588583 8.59703355,19.4558776 8.59703355,19.5625769 C8.59703355,19.8948234 8.32244036,20.1641625 7.98371249,20.1641625 C7.64498462,20.1641625 7.37039143,19.8948234 7.37039143,19.5625769 C7.37039143,19.2303303 7.64498462,18.9609912 7.98371249,18.9609912 Z M16.6487088,5.87251639 C16.6468094,6.20398817 16.3733257,6.47223892 16.0353878,6.47410201 C15.6966599,6.47410201 15.4220667,6.20476295 15.4220667,5.87251639 C15.4220667,5.54026982 15.6966599,5.27093076 16.0353878,5.27093076 C16.3741156,5.27093076 16.6487088,5.54026982 16.6487088,5.87251639 Z M24.1273231,11.0924184 C23.9049707,11.0918169 23.7004594,10.9729237 23.5931764,10.7818907 C23.5416688,10.6931791 23.5143964,10.5929214 23.514002,10.4908328 C23.514002,10.1585862 23.7885952,9.88924718 24.1273231,9.88924718 C24.4660509,9.88924718 24.7406441,10.1585862 24.7406441,10.4908328 C24.7406441,10.8230794 24.4660509,11.0924184 24.1273231,11.0924184 Z M8.2700187,9.93775683 C8.56675439,10.1026456 8.66577844,10.471363 8.49756092,10.7527409 C8.32945555,11.0437988 7.96341424,11.1408181 7.66667855,10.9759293 C7.36994285,10.8110405 7.27103095,10.4520031 7.43913632,10.1609452 C7.60724169,9.86988732 7.973283,9.77275803 8.2700187,9.93775683 Z M24.3740421,19.0773704 C24.6707778,19.2422592 24.7698018,19.6109765 24.6015843,19.8923545 C24.4823742,20.0767131 24.284999,20.1930923 24.0674376,20.1930923 C23.8463628,20.1960247 23.6407899,20.0820193 23.5293804,19.8946997 C23.417971,19.7073802 23.417971,19.4757431 23.5293804,19.2884236 C23.6407899,19.101104 23.8463628,18.9870986 24.0674376,18.990031 C24.1762183,18.9997109 24.284999,19.0191808 24.3740421,19.0773704 Z M15.4220667,24.0933339 L15.4220667,24.0932239 C15.4231096,24.0858858 15.4265762,24.0790853 15.4319355,24.0738641 C15.4838395,23.7495597 15.7924649,23.5268492 16.1235592,23.5747739 C16.4546535,23.6226985 16.6845388,23.9233565 16.6387279,24.2485428 C16.5805819,24.546595 16.3150486,24.7622931 16.0056693,24.762789 C15.9463446,24.762789 15.877039,24.7433192 15.8177143,24.7239593 C15.5605658,24.62694 15.3923483,24.3650319 15.4220667,24.0933339 Z M18.9436443,14.8084114 L18.9433079,14.8087414 C19.5470966,14.9931001 19.9526129,15.5461761 19.9526129,16.1864814 C19.9526129,16.234991 19.9427442,16.2835007 19.9427442,16.3320103 C19.9328754,16.3707301 19.9328754,16.4095598 19.9230067,16.4483895 L19.9230067,16.4775393 C19.903157,16.5647686 19.8834195,16.652108 19.8438323,16.7394474 C19.7350516,17.0014655 19.5470966,17.2343338 19.2998168,17.3895427 C19.24038,17.4186924 19.190924,17.4477322 19.1315993,17.476882 L19.1018809,17.4865619 C19.0442668,17.5133717 18.984749,17.5360542 18.9237946,17.5544315 C18.8619882,17.5710384 18.7992244,17.5840048 18.7358396,17.5932612 L18.6863836,17.6029411 C18.6171902,17.6029411 18.5577533,17.612621 18.4885598,17.612621 C18.1659705,17.6123491 17.8526948,17.5065154 17.5983528,17.3118832 L17.3312233,17.4282624 C17.2494076,17.4674311 17.1630654,17.4967568 17.0740748,17.5156017 L17.0642061,17.5156017 C16.4520706,17.6795881 15.7995949,17.6138555 15.2342238,17.3312431 L15.2245793,17.3312431 C15.1651425,17.3020933 15.1058178,17.2730535 15.0563618,17.2439037 L15.0366243,17.2342238 C14.9771874,17.1955041 14.9277315,17.1566743 14.8684068,17.1178446 C14.6309958,17.2245439 14.3738473,17.2730535 14.1067179,17.2730535 C14.0276556,17.2730535 13.95835,17.2730535 13.8891566,17.2633736 L13.8495694,17.2536936 L13.6714831,17.2245439 L13.6517456,17.2148639 C13.587962,17.2032538 13.5251395,17.1870399 13.4637905,17.1663543 C13.3055539,17.1179546 13.1571861,17.0402952 13.0088182,16.9529558 C12.7095925,16.7670192 12.4749583,16.4963691 12.3359482,16.1768015 C12.3359482,16.1574416 12.3260794,16.1476517 12.3162107,16.1282918 C12.3047364,16.0953016 12.2915229,16.0629182 12.2766235,16.0312725 C12.2649288,16.0094438 12.2549924,15.9867514 12.246905,15.963403 C12.2369241,15.9342532 12.2171866,15.9052134 12.2171866,15.8760637 C12.2153657,15.8461088 12.2087035,15.8166281 12.1974491,15.7887243 C12.1875803,15.7595745 12.1875803,15.7497846 12.1777116,15.7110649 C12.1678428,15.6723451 12.1678428,15.6335154 12.157974,15.5946857 C12.157974,15.5656459 12.1481053,15.5461761 12.1481053,15.5268162 C12.1398882,15.4657126 12.1365884,15.4040692 12.1382365,15.3424575 C12.1365847,15.2679302 12.1398812,15.1933764 12.1481053,15.1192692 C12.1481053,15.0902294 12.157974,15.0707595 12.157974,15.0513997 C12.1679549,14.9932101 12.1778237,14.9447004 12.1876925,14.8961908 C12.1975612,14.8768309 12.1975612,14.8476811 12.20743,14.8283213 C12.2193803,14.7752983 12.2359257,14.7233733 12.2568859,14.6731124 C12.2667547,14.6537525 12.2667547,14.6439626 12.2766235,14.6246028 C12.2988514,14.5646454 12.3253068,14.5062781 12.3557978,14.449924 L12.3663395,14.4301242 C12.4746715,14.2361956 12.6130585,14.0517269 12.781276,13.906198 C13.1175989,13.6053502 13.5528337,13.4209915 14.007806,13.4016316 C14.0375244,13.3919517 14.0671307,13.3919517 14.1067179,13.3919517 C14.2260212,13.3920183 14.3451144,13.4017682 14.4627783,13.4211015 C14.5122342,13.3628019 14.5616902,13.3142923 14.6210149,13.2561027 L14.6704708,13.2075931 C14.7299077,13.1590834 14.7793636,13.1105738 14.8386884,13.071744 L14.8684068,13.0523842 C14.907994,13.0232344 14.9772996,12.9747247 15.0069059,12.9553649 C15.0365122,12.936005 15.0859681,12.8971753 15.1156865,12.8874954 C15.1505182,12.875268 15.1837267,12.8589815 15.2145984,12.8389857 C15.2739231,12.8098359 15.372835,12.7613263 15.4321597,12.7419664 L15.4816157,12.7031367 C15.8770836,12.5490599 16.3067032,12.4988969 16.7279953,12.5576078 L16.7378641,12.5576078 C16.8177304,12.5658185 16.8970137,12.5787856 16.9752751,12.5964375 L16.9851438,12.5964375 C17.0643182,12.6061174 17.1335117,12.6352672 17.2126861,12.6546271 L17.2225548,12.664307 C17.3016171,12.6934568 17.3709227,12.7224966 17.4401161,12.7516464 L17.4598537,12.7613263 C17.5277142,12.7897555 17.5937742,12.8221535 17.6576775,12.8583456 L17.6675462,12.8680255 C17.7268709,12.8970653 17.7961766,12.945575 17.8555013,12.9844047 L17.86537,12.9940846 C17.9346756,13.0329143 17.9940003,13.081424 18.0533251,13.1299336 L18.0631938,13.1396136 C18.1324994,13.1979131 18.1819554,13.2464228 18.2412801,13.3046124 C18.4875394,13.5552444 18.6793676,13.8523001 18.8051452,14.177786 L18.8051452,14.1874659 C18.8248827,14.2456555 18.8447324,14.313635 18.8644699,14.3718246 C18.8644699,14.3911845 18.8743387,14.4106543 18.8743387,14.4300142 C18.8910201,14.4808346 18.9042449,14.5326848 18.9139259,14.585223 C18.9239068,14.6628825 18.9337755,14.730752 18.9436443,14.8084114 Z"/>
    <filter id="storj-d" width="117.5%" height="115.9%" x="-8.8%" y="-5.7%" filterUnits="objectBoundingBox">
      <feOffset dy=".5" in="SourceAlpha" result="shadowOffsetOuter1"/>
      <feGaussianBlur in="shadowOffsetOuter1" result="shadowBlurOuter1" stdDeviation=".5"/>
      <feColorMatrix in="shadowBlurOuter1" values="0 0 0 0 0   0 0 0 0 0   0 0 0 0 0  0 0 0 0.204257246 0"/>
    </filter>
  </defs>
  <g fill="none" fill-rule="evenodd">
    <use fill="#000" filter="url(#storj-a)" xlink:href="#storj-b"/>
    <use fill="#2683FF" xlink:href="#storj-b"/>
    <use fill="url(#storj-c)" style="mix-blend-mode:soft-light" xlink:href="#storj-b"/>
    <circle cx="16" cy="15" r="14.5" stroke="#000" stroke-opacity=".097"/>
    <g fill-rule="nonzero">
      <use fill="#000" filter="url(#storj-d)" xlink:href="#storj-e"/>
      <use fill="#FFF" fill-rule="evenodd" xlink:href="#storj-e"/>
    </g>
  </g>
</svg>
